svg/document-empty.svg

<svg width="24" height="24" viewBox="0 0 24 24" fill="none" xmlns="http://www.w3.org/2000/svg">
<path d="M4 4C4 2.89543 4.89543 2 6 2H14C14.2652 2 14.5196 2.10536 14.7071 2.29289L19.7071 7.29289C19.8946 7.48043 20 7.73478 20 8V20C20 21.1046 19.1046 22 18 22H6C4.89543 22 4 21.1046 4 20V4ZM17.5858 8L14 4.41421V8H17.5858ZM12 4L6 4V20H18V10H13C12.4477 10 12 9.55228 12 9V4Z" fill="#0D0D0D"/>
</svg>

<svg width="24" height="24" fill="none" xmlns="http://www.w3.org/2000/svg"><path d="M4 4a2 2 0 012-2h8a1 1 0 01.707.293l5 5A1 1 0 0120 8v12a2 2 0 01-2 2H6a2 2 0 01-2-2V4zm13.586 4L14 4.414V8h3.586zM12 4H6v16h12V10h-5a1 1 0 01-1-1V4z" fill="#0D0D0D"/></svg>
